storage/app/icons/phosphoricons/bold/court-basketball-bold.svg

<svg xmlns="http://www.w3.org/2000/svg" fill="currentColor" viewBox="0 0 256 256"><path d="M224 44H32a20 20 0 0 0-20 20v128a20 20 0 0 0 20 20h192a20 20 0 0 0 20-20V64a20 20 0 0 0-20-20m-4 112h-4a28 28 0 0 1 0-56h4ZM36 100h4a28 28 0 0 1 0 56h-4Zm0 80h4a52 52 0 0 0 0-104h-4v-8h80v120H36Zm104 8V68h80v8h-4a52 52 0 0 0 0 104h4v8Z"/></svg>

<svg xmlns="http://www.w3.org/2000/svg" viewBox="0 0 256 256" fill="currentColor"><path d="M224,44H32A20,20,0,0,0,12,64V192a20,20,0,0,0,20,20H224a20,20,0,0,0,20-20V64A20,20,0,0,0,224,44Zm-4,112h-4a28,28,0,0,1,0-56h4ZM36,100h4a28,28,0,0,1,0,56H36Zm0,80h4A52,52,0,0,0,40,76H36V68h80V188H36Zm104,8V68h80v8h-4a52,52,0,0,0,0,104h4v8Z"/></svg>
